packages/icons/raw/shadcn/recycle.svg

<svg width="24" height="24" viewBox="0 0 24 24" fill="none" xmlns="http://www.w3.org/2000/svg">
<path d="M7.00001 19H4.81501C4.49958 19.0009 4.18927 18.9203 3.91418 18.7659C3.6391 18.6116 3.40859 18.3887 3.24501 18.119C3.08792 17.8481 3.00486 17.5407 3.00415 17.2275C3.00345 16.9144 3.08514 16.6066 3.24101 16.335L7.19601 9.5" stroke="black" stroke-width="2" stroke-linecap="round" stroke-linejoin="round"/>
<path d="M11 19.0001H19.203C19.5169 18.9977 19.8249 18.9145 20.0974 18.7586C20.3699 18.6028 20.5978 18.3794 20.759 18.1101C20.9139 17.84 20.9954 17.534 20.9954 17.2226C20.9954 16.9112 20.9139 16.6052 20.759 16.3351L19.533 14.2151" stroke="black" stroke-width="2" stroke-linecap="round" stroke-linejoin="round"/>
<path d="M14 16L11 19L14 22" stroke="black" stroke-width="2" stroke-linecap="round" stroke-linejoin="round"/>
<path d="M8.29298 13.596L7.19598 9.5L3.09998 10.598" stroke="black" stroke-width="2" stroke-linecap="round" stroke-linejoin="round"/>
<path d="M9.34399 5.811L10.437 3.919C10.5939 3.6454 10.8189 3.41701 11.0902 3.25599C11.3614 3.09497 11.6696 3.00679 11.985 3C12.2979 2.99942 12.6055 3.08116 12.8769 3.23703C13.1482 3.39289 13.3738 3.6174 13.531 3.888L17.474 10.731" stroke="black" stroke-width="2" stroke-linecap="round" stroke-linejoin="round"/>
<path d="M13.3781 9.63301L17.4741 10.731L18.5711 6.63501" stroke="black" stroke-width="2" stroke-linecap="round" stroke-linejoin="round"/>
</svg>

<!-- @license lucide-static v1.23.0 - ISC -->
<svg
  class="lucide lucide-recycle"
  xmlns="http://www.w3.org/2000/svg"
  width="24"
  height="24"
  viewBox="0 0 24 24"
  fill="none"
  stroke="currentColor"
  stroke-width="2"
  stroke-linecap="round"
  stroke-linejoin="round"
>
  <path d="M7 19H4.815a1.83 1.83 0 0 1-1.57-.881 1.785 1.785 0 0 1-.004-1.784L7.196 9.5" />
  <path d="M11 19h8.203a1.83 1.83 0 0 0 1.556-.89 1.784 1.784 0 0 0 0-1.775l-1.226-2.12" />
  <path d="m14 16-3 3 3 3" />
  <path d="M8.293 13.596 7.196 9.5 3.1 10.598" />
  <path d="m9.344 5.811 1.093-1.892A1.83 1.83 0 0 1 11.985 3a1.784 1.784 0 0 1 1.546.888l3.943 6.843" />
  <path d="m13.378 9.633 4.096 1.098 1.097-4.096" />
</svg>
